scalable/mimes/text-x-ruby.svg

<?xml version="1.0" encoding="UTF-8" standalone="no"?>
<svg
   xmlns:dc="http://purl.org/dc/elements/1.1/"
   xmlns:cc="http://creativecommons.org/ns#"
   xmlns:rdf="http://www.w3.org/1999/02/22-rdf-syntax-ns#"
   xmlns:svg="http://www.w3.org/2000/svg"
   xmlns="http://www.w3.org/2000/svg"
   xmlns:sodipodi="http://sodipodi.sourceforge.net/DTD/sodipodi-0.dtd"
   xmlns:inkscape="http://www.inkscape.org/namespaces/inkscape"
   width="48"
   height="48"
   version="1"
   id="svg27"
   sodipodi:docname="text-x-ruby.svg"
   inkscape:version="0.92.3 (2405546, 2018-03-11)">
  <metadata
     id="metadata31">
    <rdf:RDF>
      <cc:Work
         rdf:about="">
        <dc:format>image/svg+xml</dc:format>
        <dc:type
           rdf:resource="http://purl.org/dc/dcmitype/StillImage" />
        <dc:title></dc:title>
      </cc:Work>
    </rdf:RDF>
  </metadata>
  <sodipodi:namedview
     pagecolor="#ffffff"
     bordercolor="#666666"
     borderopacity="1"
     objecttolerance="10"
     gridtolerance="10"
     guidetolerance="10"
     inkscape:pageopacity="0"
     inkscape:pageshadow="2"
     inkscape:window-width="883"
     inkscape:window-height="480"
     id="namedview29"
     showgrid="false"
     inkscape:zoom="4.9166667"
     inkscape:cx="4.1694915"
     inkscape:cy="24"
     inkscape:window-x="0"
     inkscape:window-y="25"
     inkscape:window-maximized="0"
     inkscape:current-layer="svg27" />
  <defs
     id="defs7">
    <linearGradient
       id="a">
      <stop
         offset="0"
         id="stop2" />
      <stop
         offset="1"
         stop-opacity="0"
         id="stop4" />
    </linearGradient>
  </defs>
  <path
     fill="#93ac9d"
     d="M14.94405025 47.96852205L7.11338567 17.41864193 13.01277436.03098605h21.97343545l5.89967737 17.38765588-7.82999099 30.54988012z"
     id="path9" />
  <path
     d="M18.277954 43.816802l-3.3353 4.1525h18.113l-3.3353-4.1525z"
     fill="#b7c8be"
     id="path11" />
  <g
     fill="#6f917c"
     stroke-width=".12053"
     id="g15">
    <path
       d="M29.7206517 43.81608203l3.3352668 4.1524863 7.8306958-30.54959712-4.44082187.16081884zM7.11377475 17.41920425l7.82909911 30.54959712 3.3352668-4.1524863-6.72514074-26.23608225zM13.0127829.03069796l3.08578242 4.1524863h15.80174155l3.08578242-4.1524863z"
       id="path13" />
  </g>
  <g
     fill="#536c5d"
     id="g19">
    <path
       d="M7.11338567 17.41864193L13.01277436.03098605l3.08599989 4.15268268-4.54576348 13.39601336zM36.4459734 17.57968209L31.90020992 4.18366873 34.98620981.03098605l5.89967737 17.38765588z"
       id="path17" />
  </g>
  <path
     d="M16.486326 11.777988l.699219-.347655H30.82617l.693358.355469 3.890625 5.347657.0098.874998-10.70703 15.224609-1.414063.002-10.71875-15.224608.0098-.876952z"
     fill="#e6e6e6"
     id="path21" />
  <g
     fill="#a02c2c"
     id="g25">
    <path
       d="M17.782263 12.052334h5.579746l-2.835317 4.886511zM24.648684 12.052334h5.579746L27.484 16.938845zM24.005346 12.360637l2.838882 4.893639h-5.679545zM17.144272 12.369547l2.74443 4.886511h-6.299713zM30.861074 12.376676l3.549937 4.879382h-6.290802zM27.751314 18.054437h6.668608l-9.769456 13.891447zM13.580078 18.056219h6.679301l3.100848 13.891447zM20.961525 18.056219h6.087643l-3.043822 13.633043z"
       id="path23" />
  </g>
</svg>

<svg xmlns="http://www.w3.org/2000/svg" width="48" height="48" version="1"><path fill="#93ac9d" d="M14.94 47.97L7.11 17.42 13.01.03H35l5.9 17.39-7.83 30.55z"/><path d="M18.28 43.82l-3.34 4.15h18.12l-3.34-4.15z" fill="#b7c8be"/><path d="M29.72 43.82l3.34 4.15 7.83-30.55-4.44.16zm-22.6-26.4l7.82 30.55 3.34-4.15-6.73-26.24zM13.01.03l3.08 4.15h15.8L34.99.03z" fill="#6f917c" stroke-width=".12"/><path d="M7.11 17.42L13.01.03l3.09 4.15-4.55 13.4zm29.34.16L31.9 4.18 34.99.03l5.9 17.39z" fill="#536c5d"/><path d="M16.49 11.78l.7-.35h13.64l.69.36 3.89 5.34.01.88-10.7 15.22H23.3L12.58 18.02l.01-.88z" fill="#e6e6e6"/><path d="M17.78 12.05h5.58l-2.83 4.89zm6.87 0h5.58l-2.75 4.89zm-.64.31l2.83 4.9h-5.68zm-6.87.01l2.75 4.89h-6.3zm13.72 0l3.55 4.89h-6.29zm-3.1 5.68h6.66l-9.77 13.9zm-14.18 0h6.68l3.1 13.9zm7.38 0h6.09L24 31.7z" fill="#a02c2c"/></svg>
